svg/book_account_outline.svg

<svg xmlns="http://www.w3.org/2000/svg" viewBox="0 0 24 24"><path d="M18 2a2 2 0 0 1 2 2v16a2 2 0 0 1-2 2H6a2 2 0 0 1-2-2V4a2 2 0 0 1 2-2zm0 2h-5v5l-2.5-2.3L8 9V4H6v16h12m-5-9a2 2 0 1 1-2 2 2 2 0 0 1 2-2m4 8H9v-1c0-1.33 2.67-2 4-2s4 .67 4 2z"/></svg>

<?xml version="1.0" encoding="UTF-8"?><!DOCTYPE svg PUBLIC "-//W3C//DTD SVG 1.1//EN" "http://www.w3.org/Graphics/SVG/1.1/DTD/svg11.dtd"><svg xmlns="http://www.w3.org/2000/svg" xmlns:xlink="http://www.w3.org/1999/xlink" version="1.1" id="mdi-book-account-outline" width="24" height="24" viewBox="0 0 24 24"><path d="M18 2A2 2 0 0 1 20 4V20A2 2 0 0 1 18 22H6A2 2 0 0 1 4 20V4A2 2 0 0 1 6 2H18M18 4H13V9L10.5 6.7L8 9V4H6V20H18M13 11A2 2 0 1 1 11 13A2 2 0 0 1 13 11M17 19H9V18C9 16.67 11.67 16 13 16S17 16.67 17 18V19" /></svg>
